src/components/Sprite/svg/party.svg

<?xml version="1.0" encoding="UTF-8" standalone="no"?>
<svg
   xmlns:dc="http://purl.org/dc/elements/1.1/"
   xmlns:cc="http://creativecommons.org/ns#"
   xmlns:rdf="http://www.w3.org/1999/02/22-rdf-syntax-ns#"
   xmlns:svg="http://www.w3.org/2000/svg"
   xmlns="http://www.w3.org/2000/svg"
   xmlns:sodipodi="http://sodipodi.sourceforge.net/DTD/sodipodi-0.dtd"
   xmlns:inkscape="http://www.inkscape.org/namespaces/inkscape"
   width="128"
   height="128"
   viewBox="0 0 128 128"
   version="1.1"
   id="svg8"
   inkscape:version="1.0 (4035a4f, 2020-05-01)"
   sodipodi:docname="party.svg">
  <defs
     id="defs2" />
  <sodipodi:namedview
     id="base"
     pagecolor="#ffffff"
     bordercolor="#666666"
     borderopacity="1.0"
     inkscape:pageopacity="0.0"
     inkscape:pageshadow="2"
     inkscape:zoom="3.968495"
     inkscape:cx="262.93104"
     inkscape:cy="134.54563"
     inkscape:document-units="px"
     inkscape:current-layer="layer1"
     inkscape:document-rotation="0"
     showgrid="true"
     units="px"
     inkscape:window-width="2560"
     inkscape:window-height="1331"
     inkscape:window-x="0"
     inkscape:window-y="25"
     inkscape:window-maximized="0"
     inkscape:snap-bbox="true"
     inkscape:bbox-paths="true"
     inkscape:bbox-nodes="true">
    <inkscape:grid
       type="xygrid"
       id="grid10"
       empspacing="4" />
    <inkscape:grid
       type="xygrid"
       id="grid12"
       spacingx="8"
       spacingy="8"
       empspacing="2" />
  </sodipodi:namedview>
  <metadata
     id="metadata5">
    <rdf:RDF>
      <cc:Work
         rdf:about="">
        <dc:format>image/svg+xml</dc:format>
        <dc:type
           rdf:resource="http://purl.org/dc/dcmitype/StillImage" />
        <dc:title />
      </cc:Work>
    </rdf:RDF>
  </metadata>
  <g
     inkscape:label="Layer 1"
     inkscape:groupmode="layer"
     id="layer1">
    <path
       id="path16"
       style="fill:#ffc107;stroke-width:8;stroke-linecap:round;stroke-linejoin:round"
       d="M 120,64 A 56,56 0 0 1 64,120 56,56 0 0 1 8,64 56,56 0 0 1 64,8 56,56 0 0 1 120,64" />
    <path
       id="circle883"
       style="fill:#37474f;stroke-width:8;stroke-linecap:round;stroke-linejoin:round"
       d="M 72,88 A 8,8 0 0 1 64,96 8,8 0 0 1 56,88 8,8 0 0 1 64,80 8,8 0 0 1 72,88" />
    <path
       id="path2003"
       d="M 43.945312 44 A 4.0004 4.0004 0 0 0 41.171875 45.171875 L 33.171875 53.171875 A 4 4 0 0 0 33.171875 58.828125 A 4 4 0 0 0 38.828125 58.828125 L 44 53.65625 L 49.171875 58.828125 A 4 4 0 0 0 54.828125 58.828125 A 4 4 0 0 0 54.828125 53.171875 L 46.828125 45.171875 A 4.0004 4.0004 0 0 0 43.945312 44 z "
       style="color:#000000;font-style:normal;font-variant:normal;font-weight:normal;font-stretch:normal;font-size:medium;line-height:normal;font-family:sans-serif;font-variant-ligatures:normal;font-variant-position:normal;font-variant-caps:normal;font-variant-numeric:normal;font-variant-alternates:normal;font-variant-east-asian:normal;font-feature-settings:normal;font-variation-settings:normal;text-indent:0;text-align:start;text-decoration:none;text-decoration-line:none;text-decoration-style:solid;text-decoration-color:#000000;letter-spacing:normal;word-spacing:normal;text-transform:none;writing-mode:lr-tb;direction:ltr;text-orientation:mixed;dominant-baseline:auto;baseline-shift:baseline;text-anchor:start;white-space:normal;shape-padding:0;shape-margin:0;inline-size:0;clip-rule:nonzero;display:inline;overflow:visible;visibility:visible;isolation:auto;mix-blend-mode:normal;color-interpolation:sRGB;color-interpolation-filters:linearRGB;solid-color:#000000;solid-opacity:1;vector-effect:none;fill:#37474f;fill-opacity:1;fill-rule:nonzero;stroke:none;stroke-width:8;stroke-linecap:round;stroke-linejoin:round;stroke-miterlimit:4;stroke-dasharray:none;stroke-dashoffset:0;stroke-opacity:1;color-rendering:auto;image-rendering:auto;shape-rendering:auto;text-rendering:auto;enable-background:accumulate;stop-color:#000000;stop-opacity:1;opacity:1" />
    <path
       id="path2007"
       d="M 83.945312 44 A 4.0004 4.0004 0 0 0 81.171875 45.171875 L 73.171875 53.171875 A 4 4 0 0 0 73.171875 58.828125 A 4 4 0 0 0 78.828125 58.828125 L 84 53.65625 L 89.171875 58.828125 A 4 4 0 0 0 94.828125 58.828125 A 4 4 0 0 0 94.828125 53.171875 L 86.828125 45.171875 A 4.0004 4.0004 0 0 0 83.945312 44 z "
       style="color:#000000;font-style:normal;font-variant:normal;font-weight:normal;font-stretch:normal;font-size:medium;line-height:normal;font-family:sans-serif;font-variant-ligatures:normal;font-variant-position:normal;font-variant-caps:normal;font-variant-numeric:normal;font-variant-alternates:normal;font-variant-east-asian:normal;font-feature-settings:normal;font-variation-settings:normal;text-indent:0;text-align:start;text-decoration:none;text-decoration-line:none;text-decoration-style:solid;text-decoration-color:#000000;letter-spacing:normal;word-spacing:normal;text-transform:none;writing-mode:lr-tb;direction:ltr;text-orientation:mixed;dominant-baseline:auto;baseline-shift:baseline;text-anchor:start;white-space:normal;shape-padding:0;shape-margin:0;inline-size:0;clip-rule:nonzero;display:inline;overflow:visible;visibility:visible;isolation:auto;mix-blend-mode:normal;color-interpolation:sRGB;color-interpolation-filters:linearRGB;solid-color:#000000;solid-opacity:1;vector-effect:none;fill:#37474f;fill-opacity:1;fill-rule:nonzero;stroke:none;stroke-width:8;stroke-linecap:round;stroke-linejoin:round;stroke-miterlimit:4;stroke-dasharray:none;stroke-dashoffset:0;stroke-opacity:1;color-rendering:auto;image-rendering:auto;shape-rendering:auto;text-rendering:auto;enable-background:accumulate;stop-color:#000000;stop-opacity:1;opacity:1" />
    <path
       style="fill:#d32f2f;stroke:none;stroke-width:1px;stroke-linecap:butt;stroke-linejoin:miter;stroke-opacity:1"
       d="M 8,64 0,0 64,8 Z"
       id="path1035"
       sodipodi:nodetypes="cccc" />
    <path
       id="path1045"
       style="fill:#e57373;stroke:none;stroke-width:1px;stroke-linecap:butt;stroke-linejoin:miter;stroke-opacity:1"
       d="M 14.222656 1.7773438 L 1.7773438 14.222656 L 2.6660156 21.333984 L 21.333984 2.6660156 L 14.222656 1.7773438 z M 35.554688 4.4453125 L 4.4453125 35.554688 L 5.3339844 42.666016 L 42.666016 5.3339844 L 35.554688 4.4453125 z M 56.888672 7.1113281 L 7.1113281 56.888672 L 8 64 L 64 8 L 56.888672 7.1113281 z " />
    <path
       id="rect1068"
       style="fill:#f44336;stroke:none;stroke-width:8.0111;stroke-linecap:round;stroke-linejoin:round;stroke-miterlimit:4;stroke-dasharray:none"
       d="M 68.841541,87.176841 76.82316,95.15846 C 78.392281,96.72759 78.392281,99.25404 76.82316,100.82316 75.254038,102.39228 72.727582,102.39228 71.15846,100.82316 L 63.176842,92.841541 C 61.60772,91.272419 61.60772,88.745963 63.176842,87.176841 64.745964,85.60772 67.27242,85.60772 68.841541,87.176841 Z"
       sodipodi:nodetypes="sssssss" />
    <path
       id="path1064"
       style="color:#000000;font-style:normal;font-variant:normal;font-weight:normal;font-stretch:normal;font-size:medium;line-height:normal;font-family:sans-serif;font-variant-ligatures:normal;font-variant-position:normal;font-variant-caps:normal;font-variant-numeric:normal;font-variant-alternates:normal;font-variant-east-asian:normal;font-feature-settings:normal;font-variation-settings:normal;text-indent:0;text-align:start;text-decoration:none;text-decoration-line:none;text-decoration-style:solid;text-decoration-color:#000000;letter-spacing:normal;word-spacing:normal;text-transform:none;writing-mode:lr-tb;direction:ltr;text-orientation:mixed;dominant-baseline:auto;baseline-shift:baseline;text-anchor:start;white-space:normal;shape-padding:0;shape-margin:0;inline-size:0;clip-rule:nonzero;display:inline;overflow:visible;visibility:visible;opacity:1;isolation:auto;mix-blend-mode:normal;color-interpolation:sRGB;color-interpolation-filters:linearRGB;solid-color:#000000;solid-opacity:1;vector-effect:none;fill:#03a9f4;fill-opacity:1;fill-rule:evenodd;stroke:none;stroke-width:7.79765;stroke-linecap:round;stroke-linejoin:round;stroke-miterlimit:4;stroke-dasharray:none;stroke-dashoffset:0;stroke-opacity:1;color-rendering:auto;image-rendering:auto;shape-rendering:auto;text-rendering:auto;enable-background:accumulate;stop-color:#000000;stop-opacity:1"
       d="M 107.6875,82.003906 C 102.41939,81.901413 97.179336,84.037878 93.857422,88.708984 91.749325,91.673282 90.907792,95.29744 91.449219,98.8125 91.990646,102.32756 94.119557,105.82637 97.728516,107.73828 100.1367,109.01405 102.83461,109.36084 105.52734,108.75781 108.22007,108.15478 111.1621,106.12263 112.09961,102.82422 112.85062,100.18198 112.18793,98.505035 110.81055,96.685547 110.12185,95.775805 109.00884,94.747372 107.26953,94.458984 105.53023,94.170597 103.66606,94.982221 102.58008,96.019531 101.234,97.307034 100.98854,99.36481 101.99414,100.93164 101.79771,100.87804 101.52146,100.92777 101.38867,100.85742 100.01355,100.12893 99.385588,99.069051 99.164062,97.630859 98.942537,96.192663 99.33332,94.467343 100.22266,93.216797 103.02886,89.270865 109.56177,88.855046 113.67969,91.802734 119.27518,95.808091 119.61965,103.64567 115.32422,108.81055 109.8842,115.35167 99.076466,115.78998 92.324219,110.46484 L 90.314453,108.65625 75.34375,93.685547 C 73.776801,92.118599 71.252496,92.118599 69.685547,93.685547 68.118599,95.252496 68.118599,97.776801 69.685547,99.34375 L 84.65625,114.31445 87.484375,116.57617 C 97.491649,124.46837 112.90129,123.92236 121.33203,113.78516 128.31279,105.39141 127.61352,92.190615 118.22852,85.472656 115.43703,83.474444 112.11065,82.310595 108.74219,82.054688 108.39131,82.02803 108.03871,82.010739 107.6875,82.003906 Z"
       sodipodi:nodetypes="ssssssssccsssssccsssccssss" />
  </g>
</svg>

<svg xmlns="http://www.w3.org/2000/svg" viewBox="0 0 128 128">
    <path fill="#ffc107" d="M120 64a56 56 0 01-56 56A56 56 0 018 64 56 56 0 0164 8a56 56 0 0156 56"/>
    <path fill="#37474f" d="M72 88a8 8 0 01-8 8 8 8 0 01-8-8 8 8 0 018-8 8 8 0 018 8M43.945 44a4 4 0 00-2.773 1.172l-8 8a4 4 0 000 5.656 4 4 0 005.656 0L44 53.656l5.172 5.172a4 4 0 005.656 0 4 4 0 000-5.656l-8-8A4 4 0 0043.945 44zm40 0a4 4 0 00-2.773 1.172l-8 8a4 4 0 000 5.656 4 4 0 005.656 0L84 53.656l5.172 5.172a4 4 0 005.656 0 4 4 0 000-5.656l-8-8A4 4 0 0083.945 44z"/>
    <path fill="#d32f2f" d="M8 64L0 0l64 8z"/>
    <path fill="#e57373" d="M14.223 1.777L1.777 14.223l.889 7.111L21.334 2.666l-7.111-.889zm21.332 2.668l-31.11 31.11.889 7.111L42.666 5.334l-7.111-.889zm21.334 2.666L7.11 56.89 8 64 64 8l-7.111-.889z"/>
    <path fill="#f44336" d="M68.842 87.177l7.981 7.981a3.997 3.997 0 010 5.665 3.997 3.997 0 01-5.665 0l-7.981-7.981a3.997 3.997 0 010-5.665 3.997 3.997 0 015.665 0z"/>
    <path fill="#03a9f4" d="M107.688 82.004c-5.269-.103-10.509 2.034-13.83 6.705a13.8 13.8 0 00-2.409 10.103c.542 3.516 2.67 7.014 6.28 8.926 2.408 1.276 5.106 1.623 7.798 1.02 2.693-.603 5.635-2.635 6.573-5.934.75-2.642.088-4.319-1.29-6.138-.688-.91-1.801-1.939-3.54-2.227-1.74-.288-3.604.523-4.69 1.56a3.889 3.889 0 00-.586 4.913c-.196-.054-.473-.004-.605-.075-1.375-.728-2.003-1.788-2.225-3.226-.221-1.438.17-3.164 1.059-4.414 2.806-3.946 9.339-4.362 13.457-1.414 5.595 4.005 5.94 11.843 1.644 17.008-5.44 6.54-16.248 6.979-23 1.654l-2.01-1.809-14.97-14.97a3.993 3.993 0 00-5.658 0 3.993 3.993 0 000 5.658l14.97 14.97 2.828 2.262c10.008 7.892 25.417 7.346 33.848-2.79 6.98-8.395 6.282-21.595-3.103-28.313-2.792-1.999-6.118-3.162-9.487-3.418a18.53 18.53 0 00-1.055-.051z"/>
</svg>
